assets/icon-refresh.svg

<svg fill="none" height="16" viewBox="0 0 16 16" width="16" xmlns="http://www.w3.org/2000/svg"><path d="m4.50001 4.49999c1.9-1.9 5.1-1.9 6.99999 0 .7.7 1.2 1.7 1.4 2.7l2-.3c-.2-1.5-.9-2.8-1.9-3.8-2.7-2.699996-7.09999-2.699996-9.89999 0l-2.199998-2.199996-.7 6.399996 6.399998-.7z" fill="#546bfb"/><path d="m15.8 8.69998-6.39999.7 2.09999 2.10002c-1.89999 1.9-5.09999 1.9-6.99999 0-.7-.7-1.2-1.70002-1.4-2.70002l-2 .3c.2 1.50002.9 2.80002 1.9 3.80002 1.4 1.4 3.1 2 4.9 2s3.59999-.7 4.89999-2l2.2 2.2z" fill="#d7dcff"/></svg>

<svg width="16" height="16" viewBox="0 0 16 16" fill="none" xmlns="http://www.w3.org/2000/svg">
<path d="M4.50001 4.49999C6.40001 2.59999 9.60001 2.59999 11.5 4.49999C12.2 5.19999 12.7 6.19999 12.9 7.19999L14.9 6.89999C14.7 5.39999 14 4.09999 13 3.09999C10.3 0.399994 5.90001 0.399994 3.10001 3.09999L0.900012 0.899994L0.200012 7.29999L6.60001 6.59999L4.50001 4.49999Z" fill="#546BFB"/>
<path d="M15.8 8.69998L9.40001 9.39998L11.5 11.5C9.60001 13.4 6.40001 13.4 4.50001 11.5C3.80001 10.8 3.30001 9.79998 3.10001 8.79998L1.10001 9.09998C1.30001 10.6 2.00001 11.9 3.00001 12.9C4.40001 14.3 6.10001 14.9 7.90001 14.9C9.70001 14.9 11.5 14.2 12.8 12.9L15 15.1L15.8 8.69998Z" fill="#D7DCFF"/>
</svg>
